;FLAVOR:Marlin
;TIME:5310
;Filament used: 3.35949m
;Layer height: 0.2
;MINX:99.2
;MINY:79.995
;MINZ:0.2
;MAXX:120.8
;MAXY:131.595
;MAXZ:36
;Generated with Cura_SteamEngine 4.4.1
M140 S50
M105
M190 S50
M104 S200
M105
M109 S200
M82 ;absolute extrusion mode
M201 X500.00 Y500.00 Z100.00 E5000.00 ;Setup machine max acceleration
M203 X500.00 Y500.00 Z10.00 E50.00 ;Setup machine max feedrate
M204 P500.00 R1000.00 T500.00 ;Setup Print/Retract/Travel acceleration
M205 X8.00 Y8.00 Z0.40 E5.00 ;Setup Jerk
M220 S100 ;Reset Feedrate
M221 S100 ;Reset Flowrate

G28 ;Home

G92 E0 ;Reset Extruder
G1 Z2.0 F3000 ;Move Z Axis up
G1 X10.1 Y20 Z0.28 F5000.0 ;Move to start position
G1 X10.1 Y200.0 Z0.28 F1500.0 E15 ;Draw the first line
G1 X10.4 Y200.0 Z0.28 F5000.0 ;Move to side a little
G1 X10.4 Y20 Z0.28 F1500.0 E30 ;Draw the second line
G92 E0 ;Reset Extruder
G1 Z2.0 F3000 ;Move Z Axis up

G92 E0
G92 E0
G1 F2700 E-5
;LAYER_COUNT:180
;LAYER:0
M107
G0 F6000 X101.08 Y82.717 Z0.2
;TYPE:SKIRT
G1 F2700 E0
G1 F1200 X101.623 Y82.144 E0.02626
G1 X102.222 Y81.629 E0.05253
G1 X102.87 Y81.178 E0.07879
G1 X103.561 Y80.794 E0.10508
G1 X104.286 Y80.482 E0.13133
G1 X105.039 Y80.245 E0.15759
G1 X105.813 Y80.086 E0.18387
G1 X106.598 Y80.005 E0.21012
G1 X107 Y79.995 E0.22349
G1 X113 Y79.995 E0.42305
G1 X113.789 Y80.035 E0.44933
G1 X114.569 Y80.154 E0.47557
G1 X115.334 Y80.352 E0.50186
G1 X116.074 Y80.626 E0.5281
G1 X116.783 Y80.974 E0.55437
G1 X117.454 Y81.392 E0.58066
G1 X118.078 Y81.875 E0.60691
G1 X118.651 Y82.418 E0.63316
G1 X119.166 Y83.017 E0.65944
G1 X119.617 Y83.665 E0.6857
G1 X120.001 Y84.356 E0.71199
G1 X120.313 Y85.081 E0.73824
G1 X120.55 Y85.834 E0.7645
G1 X120.709 Y86.608 E0.79078
G1 X120.79 Y87.393 E0.81703
G1 X120.8 Y87.795 E0.8304
G1 X120.8 Y123.795 E2.02777
G1 X120.76 Y124.584 E2.05404
G1 X120.641 Y125.364 E2.08029
G1 X120.443 Y126.129 E2.10657
G1 X120.169 Y126.869 E2.13281
G1 X119.821 Y127.578 E2.15908
G1 X119.403 Y128.249 E2.18538
G1 X118.92 Y128.873 E2.21162
G1 X118.377 Y129.446 E2.23788
G1 X117.778 Y129.961 E2.26415
G1 X117.13 Y130.412 E2.29041
G1 X116.439 Y130.796 E2.3167
G1 X115.714 Y131.108 E2.34296
G1 X114.961 Y131.345 E2.36921
G1 X114.187 Y131.504 E2.39549
G1 X113.402 Y131.585 E2.42174
G1 X113 Y131.595 E2.43511
G1 X107 Y131.595 E2.63468
G1 X106.211 Y131.555 E2.66095
G1 X105.431 Y131.436 E2.68719
G1 X104.666 Y131.238 E2.71348
G1 X103.926 Y130.964 E2.73972
G1 X103.217 Y130.616 E2.76599
G1 X102.546 Y130.198 E2.79229
G1 X101.922 Y129.715 E2.81853
G1 X101.349 Y129.172 E2.84479
G1 X100.834 Y128.573 E2.87106
G1 X100.383 Y127.925 E2.89732
G1 X99.999 Y127.234 E2.92361
G1 X99.687 Y126.509 E2.94986
G1 X99.45 Y125.756 E2.97612
G1 X99.291 Y124.982 E3.0024
G1 X99.21 Y124.197 E3.02865
G1 X99.2 Y123.795 E3.04202
G1 X99.2 Y87.795 E4.23939
G1 X99.24 Y87.006 E4.26566
G1 X99.359 Y86.226 E4.29191
G1 X99.557 Y85.461 E4.31819
G1 X99.831 Y84.721 E4.34444
G1 X100.179 Y84.012 E4.3707
G1 X100.597 Y83.341 E4.397
G1 X101.08 Y82.717 E4.42324
G0 F6000 X101.475 Y82.872
G1 F1200 X102.016 Y82.325 E4.44883
G1 X102.611 Y81.837 E4.47443
G1 X103.253 Y81.414 E4.5
G1 X103.936 Y81.059 E4.5256
G1 X104.651 Y80.778 E4.55115
G1 X105.393 Y80.572 E4.57676
G1 X106.151 Y80.444 E4.60233
G1 X107 Y80.395 E4.63062
G1 X113 Y80.395 E4.83018
G1 X113.768 Y80.435 E4.85576
G1 X114.528 Y80.554 E4.88134
G1 X115.271 Y80.752 E4.90692
G1 X115.99 Y81.026 E4.93251
G1 X116.676 Y81.373 E4.95808
G1 X117.323 Y81.789 E4.98366
G1 X117.923 Y82.27 E5.00924
G1 X118.47 Y82.811 E5.03483
G1 X118.958 Y83.406 E5.06042
G1 X119.381 Y84.048 E5.08599
G1 X119.736 Y84.731 E5.11159
G1 X120.017 Y85.446 E5.13715
G1 X120.223 Y86.188 E5.16276
G1 X120.351 Y86.946 E5.18833
G1 X120.4 Y87.795 E5.21661
G1 X120.4 Y123.795 E6.41398
G1 X120.36 Y124.563 E6.43955
G1 X120.241 Y125.323 E6.46514
G1 X120.043 Y126.066 E6.49071
G1 X119.769 Y126.785 E6.51631
G1 X119.422 Y127.471 E6.54188
G1 X119.006 Y128.118 E6.56746
G1 X118.525 Y128.718 E6.59304
G1 X117.984 Y129.265 E6.61862
G1 X117.389 Y129.753 E6.64422
G1 X116.747 Y130.176 E6.66979
G1 X116.064 Y130.531 E6.69539
G1 X115.349 Y130.812 E6.72094
G1 X114.607 Y131.018 E6.74656
G1 X113.849 Y131.146 E6.77212
G1 X113 Y131.195 E6.80041
G1 X107 Y131.195 E6.99997
G1 X106.232 Y131.155 E7.02555
G1 X105.472 Y131.036 E7.05113
G1 X104.729 Y130.838 E7.07671
G1 X104.01 Y130.564 E7.1023
G1 X103.324 Y130.217 E7.12787
G1 X102.677 Y129.801 E7.15345
G1 X102.077 Y129.32 E7.17903
G1 X101.53 Y128.779 E7.20462
G1 X101.042 Y128.184 E7.23021
G1 X100.619 Y127.542 E7.25579
G1 X100.264 Y126.859 E7.28139
G1 X99.983 Y126.144 E7.30694
G1 X99.777 Y125.402 E7.33255
G1 X99.649 Y124.644 E7.35812
G1 X99.6 Y123.795 E7.3864
G1 X99.6 Y87.795 E8.58377
G1 X99.64 Y87.027 E8.60935
G1 X99.759 Y86.267 E8.63493
G1 X99.957 Y85.524 E8.66051
G1 X100.231 Y84.805 E8.6861
G1 X100.578 Y84.119 E8.71167
G1 X100.994 Y83.472 E8.73725
G1 X101.475 Y82.872 E8.76283
G0 F6000 X101.871 Y83.032
G1 F1200 X102.408 Y82.511 E8.78771
G1 X102.998 Y82.052 E8.81258
G1 X103.634 Y81.657 E8.83748
G1 X104.308 Y81.333 E8.86235
G1 X105.013 Y81.083 E8.88723
G1 X105.741 Y80.909 E8.91213
G1 X106.483 Y80.814 E8.93701
G1 X107 Y80.795 E8.95421
G1 X113 Y80.795 E9.15377
G1 X113.747 Y80.835 E9.17866
G1 X114.485 Y80.954 E9.20352
G1 X115.207 Y81.152 E9.22842
G1 X115.903 Y81.425 E9.25329
G1 X116.566 Y81.772 E9.27817
G1 X117.189 Y82.187 E9.30307
G1 X117.763 Y82.666 E9.32794
G1 X118.284 Y83.203 E9.35282
G1 X118.743 Y83.793 E9.37769
G1 X119.138 Y84.429 E9.40259
G1 X119.462 Y85.103 E9.42746
G1 X119.712 Y85.808 E9.45234
G1 X119.886 Y86.536 E9.47723
G1 X119.981 Y87.278 E9.50211
G1 X120 Y87.795 E9.51932
G1 X120 Y123.795 E10.71669
G1 X119.96 Y124.542 E10.74157
G1 X119.841 Y125.28 E10.76643
G1 X119.643 Y126.002 E10.79133
G1 X119.37 Y126.698 E10.8162
G1 X119.023 Y127.361 E10.84109
G1 X118.608 Y127.984 E10.86598
G1 X118.129 Y128.558 E10.89085
G1 X117.592 Y129.079 E10.91573
G1 X117.002 Y129.538 E10.9406
G1 X116.366 Y129.933 E10.9655
G1 X115.692 Y130.257 E10.99037
G1 X114.987 Y130.507 E11.01525
G1 X114.259 Y130.681 E11.04015
G1 X113.517 Y130.776 E11.06503
G1 X113 Y130.795 E11.08223
G1 X107 Y130.795 E11.28179
G1 X106.253 Y130.755 E11.30667
G1 X105.515 Y130.636 E11.33154
G1 X104.793 Y130.438 E11.35644
G1 X104.097 Y130.165 E11.3813
G1 X103.434 Y129.818 E11.40619
G1 X102.811 Y129.403 E11.43109
G1 X102.237 Y128.924 E11.45596
G1 X101.716 Y128.387 E11.48084
G1 X101.257 Y127.797 E11.5057
G1 X100.862 Y127.161 E11.53061
G1 X100.538 Y126.487 E11.55548
G1 X100.288 Y125.782 E11.58036
G1 X100.114 Y125.054 E11.60525
G1 X100.019 Y124.312 E11.63013
G1 X100 Y123.795 E11.64734
G1 X100 Y87.795 E12.84471
G1 X100.04 Y87.048 E12.86959
G1 X100.159 Y86.31 E12.89445
G1 X100.357 Y85.588 E12.91935
G1 X100.63 Y84.892 E12.94422
G1 X100.977 Y84.229 E12.9691
G1 X101.392 Y83.606 E12.994
G1 X101.871 Y83.032 E13.01887
G0 F6000 X101.789 Y83.745
G1 F1200 X102.265 Y83.197 E13.04301
G1 X102.799 Y82.704 E13.06718
G1 X103.384 Y82.274 E13.09133
G1 X104.013 Y81.91 E13.1155
G1 X104.678 Y81.617 E13.13967
G1 X105.371 Y81.399 E13.16383
G1 X106.083 Y81.259 E13.18797
G1 X107 Y81.195 E13.21854
G1 X113 Y81.195 E13.4181
G1 X113.725 Y81.235 E13.44225
G1 X114.442 Y81.354 E13.46643
G1 X115.141 Y81.552 E13.49059
G1 X115.814 Y81.825 E13.51475
G1 X116.453 Y82.17 E13.5389
G1 X117.05 Y82.584 E13.56306
G1 X117.598 Y83.06 E13.58721
G1 X118.091 Y83.594 E13.61138
G1 X118.521 Y84.179 E13.63553
G1 X118.885 Y84.808 E13.6597
G1 X119.178 Y85.473 E13.68387
G1 X119.396 Y86.166 E13.70803
G1 X119.536 Y86.878 E13.73216
G1 X119.6 Y87.795 E13.76274
G1 X119.6 Y123.795 E14.9601
G1 X119.56 Y124.52 E14.98425
G1 X119.441 Y125.237 E15.00843
G1 X119.243 Y125.936 E15.03259
G1 X118.97 Y126.609 E15.05675
G1 X118.625 Y127.248 E15.0809
G1 X118.211 Y127.845 E15.10506
G1 X117.735 Y128.393 E15.12921
G1 X117.201 Y128.886 E15.15338
G1 X116.616 Y129.316 E15.17753
G1 X115.987 Y129.68 E15.2017
G1 X115.322 Y129.973 E15.22587
G1 X114.629 Y130.191 E15.25003
G1 X113.917 Y130.331 E15.27416
G1 X113 Y130.395 E15.30474
G1 X107 Y130.395 E15.5043
G1 X106.275 Y130.355 E15.52845
G1 X105.558 Y130.236 E15.55262
G1 X104.859 Y130.038 E15.57679
G1 X104.186 Y129.765 E15.60094
G1 X103.547 Y129.42 E15.6251
G1 X102.95 Y129.006 E15.64926
G1 X102.402 Y128.53 E15.6734
G1 X101.909 Y127.996 E15.69757
G1 X101.479 Y127.411 E15.72172
G1 X101.115 Y126.782 E15.74589
G1 X100.822 Y126.117 E15.77006
G1 X100.604 Y125.424 E15.79423
G1 X100.464 Y124.712 E15.81836
G1 X100.4 Y123.795 E15.84893
G1 X100.4 Y87.795 E17.0463
G1 X100.44 Y87.07 E17.07045
G1 X100.559 Y86.353 E17.09462
G1 X100.757 Y85.654 E17.11879
G1 X101.03 Y84.981 E17.14294
G1 X101.375 Y84.342 E17.1671
G1 X101.789 Y83.745 E17.19126
G0 F6000 X102.185 Y83.889
G1 F1200 X102.659 Y83.368 E17.21469
G1 X103.189 Y82.904 E17.23811
G1 X103.768 Y82.504 E17.26152
G1 X104.389 Y82.172 E17.28494
G1 X105.043 Y81.912 E17.30835
G1 X105.723 Y81.728 E17.33178
G1 X106.419 Y81.622 E17.3552
G1 X107 Y81.595 E17.37454
G1 X113 Y81.595 E17.5741
G1 X113.703 Y81.635 E17.59752
G1 X114.397 Y81.754 E17.62094
G1 X115.072 Y81.952 E17.64434
G1 X115.721 Y82.224 E17.66774
G1 X116.335 Y82.569 E17.69117
G1 X116.906 Y82.98 E17.71457
G1 X117.427 Y83.454 E17.73799
G1 X117.891 Y83.984 E17.76142
G1 X118.291 Y84.563 E17.78483
G1 X118.623 Y85.184 E17.80825
G1 X118.883 Y85.838 E17.83166
G1 X119.067 Y86.518 E17.85509
G1 X119.173 Y87.214 E17.8785
G1 X119.2 Y87.795 E17.89785
G1 X119.2 Y123.795 E19.09521
G1 X119.16 Y124.498 E19.11863
G1 X119.041 Y125.192 E19.14205
G1 X118.843 Y125.867 E19.16545
G1 X118.571 Y126.516 E19.18885
G1 X118.226 Y127.13 E19.21228
G1 X117.815 Y127.701 E19.23568
G1 X117.341 Y128.222 E19.25911
G1 X116.811 Y128.686 E19.28253
G1 X116.232 Y129.086 E19.30594
G1 X115.611 Y129.418 E19.32936
G1 X114.957 Y129.678 E19.35277
G1 X114.277 Y129.862 E19.3762
G1 X113.581 Y129.968 E19.39962
G1 X113 Y129.995 E19.41896
G1 X107 Y129.995 E19.61852
G1 X106.297 Y129.955 E19.64194
G1 X105.603 Y129.836 E19.66536
G1 X104.928 Y129.638 E19.68876
G1 X104.279 Y129.366 E19.71216
G1 X103.665 Y129.021 E19.73559
G1 X103.094 Y128.61 E19.75899
G1 X102.573 Y128.136 E19.78241
G1 X102.109 Y127.606 E19.80584
G1 X101.709 Y127.027 E19.82925
G1 X101.377 Y126.406 E19.85267
G1 X101.117 Y125.752 E19.87608
G1 X100.933 Y125.072 E19.89951
G1 X100.827 Y124.376 E19.92292
G1 X100.8 Y123.795 E19.94227
G1 X100.8 Y87.795 E21.13963
G1 X100.84 Y87.092 E21.16305
G1 X100.959 Y86.398 E21.18647
G1 X101.157 Y85.723 E21.20987
G1 X101.429 Y85.074 E21.23328
G1 X101.774 Y84.46 E21.2567
G1 X102.185 Y83.889 E21.2801
G0 F6000 X102.582 Y84.037
G1 F1200 X103.053 Y83.546 E21.30273
G1 X103.578 Y83.112 E21.32538
G1 X104.15 Y82.743 E21.34802
G1 X104.762 Y82.444 E21.37068
G1 X105.404 Y82.219 E21.39331
G1 X106.069 Y82.07 E21.41597
G1 X107 Y81.995 E21.44704
G1 X113 Y81.995 E21.6466
G1 X113.68 Y82.035 E21.66925
G1 X114.35 Y82.154 E21.69189
G1 X115.002 Y82.351 E21.71454
G1 X115.626 Y82.623 E21.73718
G1 X116.214 Y82.967 E21.75984
G1 X116.758 Y83.377 E21.7825
G1 X117.249 Y83.848 E21.80513
G1 X117.683 Y84.373 E21.82778
G1 X118.052 Y84.945 E21.85042
G1 X118.351 Y85.557 E21.87308
G1 X118.576 Y86.199 E21.8957
G1 X118.725 Y86.864 E21.91837
G1 X118.8 Y87.795 E21.94943
G1 X118.8 Y123.795 E23.1468
G1 X118.76 Y124.475 E23.16946
G1 X118.641 Y125.145 E23.19209
G1 X118.444 Y125.797 E23.21474
G1 X118.172 Y126.421 E23.23738
G1 X117.828 Y127.009 E23.26004
G1 X117.418 Y127.553 E23.2827
G1 X116.947 Y128.044 E23.30533
G1 X116.422 Y128.478 E23.32798
G1 X115.85 Y128.847 E23.35062
G1 X115.238 Y129.146 E23.37328
G1 X114.596 Y129.371 E23.3959
G1 X113.931 Y129.52 E23.41857
G1 X113 Y129.595 E23.44964
G1 X107 Y129.595 E23.6492
G1 X106.32 Y129.555 E23.67185
G1 X105.65 Y129.436 E23.69449
G1 X104.998 Y129.239 E23.71714
G1 X104.374 Y128.967 E23.73978
G1 X103.786 Y128.623 E23.76244
G1 X103.242 Y128.213 E23.78509
G1 X102.751 Y127.742 E23.80772
G1 X102.317 Y127.217 E23.83038
G1 X101.948 Y126.645 E23.85302
G1 X101.649 Y126.033 E23.87567
G1 X101.424 Y125.391 E23.8983
G1 X101.275 Y124.726 E23.92097
G1 X101.2 Y123.795 E23.95203
G1 X101.2 Y87.795 E25.1494
G1 X101.24 Y87.115 E25.17205
G1 X101.359 Y86.445 E25.19469
G1 X101.556 Y85.793 E25.21734
G1 X101.828 Y85.169 E25.23998
G1 X102.172 Y84.581 E25.26264
G1 X102.582 Y84.037 E25.2853
G0 F6000 X102.978 Y84.192
G1 F1200 X103.445 Y83.73 E25.30714
G1 X103.965 Y83.329 E25.32898
G1 X104.529 Y82.993 E25.35082
G1 X105.131 Y82.729 E25.37268
G1 X105.76 Y82.539 E25.39454
G1 X106.407 Y82.428 E25.41637
G1 X107 Y82.395 E25.43613
G1 X113 Y82.395 E25.63569
G1 X113.656 Y82.435 E25.65755
G1 X114.302 Y82.554 E25.67939
G1 X114.929 Y82.751 E25.70125
G1 X115.527 Y83.023 E25.7231
G1 X116.088 Y83.365 E25.74496
G1 X116.603 Y83.773 E25.76681
G1 X117.065 Y84.24 E25.78866
G1 X117.466 Y84.76 E25.8105
G1 X117.802 Y85.324 E25.83233
G1 X118.066 Y85.926 E25.8542
G1 X118.256 Y86.555 E25.87605
G1 X118.367 Y87.202 E25.89788
G1 X118.4 Y87.795 E25.91764
G1 X118.4 Y123.795 E27.115
G1 X118.36 Y124.451 E27.13686
G1 X118.241 Y125.097 E27.15871
G1 X118.044 Y125.724 E27.18057
G1 X117.772 Y126.322 E27.20242
G1 X117.43 Y126.883 E27.22427
G1 X117.022 Y127.398 E27.24612
G1 X116.555 Y127.86 E27.26797
G1 X116.035 Y128.261 E27.28981
G1 X115.471 Y128.597 E27.31165
G1 X114.869 Y128.861 E27.33351
G1 X114.24 Y129.051 E27.35537
G1 X113.593 Y129.162 E27.3772
G1 X113 Y129.195 E27.39695
G1 X107 Y129.195 E27.59652
G1 X106.344 Y129.155 E27.61837
G1 X105.698 Y129.036 E27.64022
G1 X105.071 Y128.839 E27.66208
G1 X104.473 Y128.567 E27.68393
G1 X103.912 Y128.225 E27.70578
G1 X103.397 Y127.817 E27.72764
G1 X102.935 Y127.35 E27.74949
G1 X102.534 Y126.83 E27.77133
G1 X102.198 Y126.266 E27.79316
G1 X101.934 Y125.664 E27.81503
G1 X101.744 Y125.035 E27.83688
G1 X101.633 Y124.388 E27.85871
G1 X101.6 Y123.795 E27.87847
G1 X101.6 Y87.795 E29.07583
G1 X101.64 Y87.139 E29.09769
G1 X101.759 Y86.493 E29.11954
G1 X101.956 Y85.866 E29.1414
G1 X102.228 Y85.268 E29.16325
G1 X102.57 Y84.707 E29.1851
G1 X102.978 Y84.192 E29.20695
G0 F6000 X103.373 Y84.354
G1 F1200 X103.836 Y83.924 E29.22797
G1 X104.35 Y83.555 E29.24902
G1 X104.906 Y83.255 E29.27003
G1 X105.495 Y83.027 E29.29104
G1 X106.109 Y82.875 E29.31207
G1 X107 Y82.795 E29.34183
G1 X113 Y82.795 E29.54139
G1 X113.631 Y82.835 E29.56242
G1 X114.252 Y82.954 E29.58345
G1 X114.852 Y83.151 E29.60445
G1 X115.424 Y83.422 E29.6255
G1 X115.956 Y83.762 E29.6465
G1 X116.441 Y84.168 E29.66754
G1 X116.871 Y84.631 E29.68856
G1 X117.24 Y85.145 E29.7096
G1 X117.54 Y85.701 E29.73061
G1 X117.768 Y86.29 E29.75162
G1 X117.92 Y86.904 E29.77266
G1 X118 Y87.795 E29.80241
G1 X118 Y123.795 E30.99978
G1 X117.96 Y124.426 E31.02081
G1 X117.841 Y125.047 E31.04184
G1 X117.644 Y125.647 E31.06284
G1 X117.373 Y126.219 E31.08389
G1 X117.033 Y126.751 E31.10489
G1 X116.627 Y127.236 E31.12593
G1 X116.164 Y127.666 E31.14695
G1 X115.65 Y128.035 E31.16799
G1 X115.094 Y128.335 E31.189
G1 X114.505 Y128.563 E31.21001
G1 X113.891 Y128.715 E31.23105
G1 X113 Y128.795 E31.2608
G1 X107 Y128.795 E31.46036
G1 X106.369 Y128.755 E31.48139
G1 X105.748 Y128.636 E31.50242
G1 X105.148 Y128.439 E31.52343
G1 X104.576 Y128.168 E31.54448
G1 X104.044 Y127.828 E31.56548
G1 X103.559 Y127.422 E31.58652
G1 X103.129 Y126.959 E31.60753
G1 X102.76 Y126.445 E31.62858
G1 X102.46 Y125.889 E31.64959
G1 X102.232 Y125.3 E31.6706
G1 X102.08 Y124.686 E31.69164
G1 X102 Y123.795 E31.72139
G1 X102 Y87.795 E32.91875
G1 X102.04 Y87.164 E32.93978
G1 X102.159 Y86.543 E32.96081
G1 X102.356 Y85.943 E32.98182
G1 X102.627 Y85.371 E33.00287
G1 X102.967 Y84.839 E33.02387
G1 X103.373 Y84.354 E33.04491
G0 F6000 X103.365 Y84.976
G1 F1200 X103.767 Y84.523 E33.06505
G1 X104.225 Y84.126 E33.08521
G1 X104.732 Y83.793 E33.10539
G1 X105.278 Y83.529 E33.12556
G1 X105.854 Y83.34 E33.14572
G1 X106.45 Y83.228 E33.16589
G1 X107 Y83.195 E33.18422
G1 X113 Y83.195 E33.38378
G1 X113.605 Y83.235 E33.40394
G1 X114.199 Y83.354 E33.42409
G1 X114.773 Y83.55 E33.44427
G1 X115.316 Y83.821 E33.46445
G1 X115.819 Y84.16 E33.48462
G1 X116.272 Y84.562 E33.50477
G1 X116.669 Y85.02 E33.52493
G1 X117.002 Y85.527 E33.5451
G1 X117.266 Y86.073 E33.56527
G1 X117.455 Y86.649 E33.58544
G1 X117.567 Y87.245 E33.60561
G1 X117.6 Y87.795 E33.62393
G1 X117.6 Y123.795 E34.8213
